app/assets/images/heroicons/solid/backward.svg

<svg width="24" height="24" viewBox="0 0 24 24" fill="none" xmlns="http://www.w3.org/2000/svg">
<path d="M9.19475 18.4394C10.4447 19.1536 12 18.2511 12 16.8114V14.4709L18.9447 18.4394C20.1947 19.1536 21.75 18.2511 21.75 16.8114L21.75 8.68856C21.75 7.24889 20.1947 6.34633 18.9447 7.06061L12 11.029V8.68856C12 7.24889 10.4447 6.34633 9.19475 7.06061L2.08726 11.122C0.827605 11.8418 0.827603 13.6581 2.08726 14.3779L9.19475 18.4394Z" fill="#0F172A"/>
</svg>

<svg xmlns="http://www.w3.org/2000/svg" viewBox="0 0 24 24" fill="currentColor" aria-hidden="true" data-slot="icon">
  <path d="M9.195 18.44c1.25.714 2.805-.189 2.805-1.629v-2.34l6.945 3.968c1.25.715 2.805-.188 2.805-1.628V8.69c0-1.44-1.555-2.343-2.805-1.628L12 11.029v-2.34c0-1.44-1.555-2.343-2.805-1.628l-7.108 4.061c-1.26.72-1.26 2.536 0 3.256l7.108 4.061Z"/>
</svg>
